X: 40
T:The Castle
% Nottingham Music Database
S:Trad, arr Phil Rowe
M:6/8
K:G
D|"G"G3 GAB|"Am"A3 "D7"ABc|"G"edd gdd|"C"edB "D7"dBA|
"G"G3 GAB|"Am"A3 "D7"ABc|"G"edd gdB|"D7"AGF "G"G2::
A|"G"BAB dBd|"C"e/2f/2ge "D"dBA|"G"BAB dBG|"D7"ABA A2A|
"G"BAB dBd|"C"e/2f/2ge "D"dBA|"G"gfg "D7"aga|"G"bgg g2:|<end>
<start>
